!!!COA: Josquin des Prez
!!!CDT: ~1450-1521/08/27
!!!OTL: Cueur langoreulx
!!!AGN: Chanson
!!!SCT: NJE 29.2
!!!SCA: New Josquin Edition 29.2
!!!voices: 5
**kern	**kern	**kern	**kern	**kern
*staff5	*staff4	*staff3	*staff2	*staff1
*Ivox	*Ivox	*Ivox	*Ivox	*Ivox
*I"Bassus	*I"Tenor	*I"Quintus	*I"Contratenor	*I"Superius
*I'B	*I'T	*I'Q	*I'Ct	*I'S
*clefF4	*clefGv2	*clefGv2	*clefGv2	*clefG2
*k[]	*k[]	*k[]	*k[]	*k[]
*M2/1	*M2/1	*M2/1	*M2/1	*M2/1
*met(C|)	*met(C|)	*met(C|)	*met(C|)	*met(C|)
=1-	=1-	=1-	=1-	=1-
!	!	!	!	!LO:TX:Z=6:t=Canon at the lower fifth
1.A	0r	0r	1A	0a
.	.	.	1A	.
2G\	.	.	.	.
=2	=2	=2	=2	=2
1F	0r	0r	1A	1a
1F	.	.	[1c	1a
=3	=3	=3	=3	=3
1.E	0e	0r	2c\]	0g
.	.	.	4B\	.
.	.	.	4A/	.
.	.	.	2B\	.
2C/	.	.	2c\	.
=4	=4	=4	=4	=4
0C	1e	0r	2G/	1r
.	.	.	2.c\	.
.	1e	.	.	1g
.	.	.	4d\	.
.	.	.	2e\	.
=5	=5	=5	=5	=5
0r	0d	0d	2f\	1a
.	.	.	2d\	.
.	.	.	2.f\	2d/
.	.	.	.	[2a/
.	.	.	4g\	.
=6	=6	=6	=6	=6
0r	1r	1d	[0a	4a/]
.	.	.	.	4g/
.	.	.	.	4f/
.	.	.	.	4e/
.	1d	1d	.	1f
=7	=7	=7	=7	=7
0A	1e	0c	1a]	0e
.	2A/	.	2r	.
.	[2e\	.	2A/	.
=8	=8	=8	=8	=8
1A	4e\]	1r	2.c\	0r
.	4d\	.	.	.
.	4c\	.	.	.
.	4B\	.	4d\	.
1A	1c	1c	2e\	.
.	.	.	2f#i\	.
=9	=9	=9	=9	=9
0G	0B	1d	2g\	0r
.	.	.	2G/	.
.	.	2G/	2d\	.
.	.	[2d\	2G/	.
=10	=10	=10	=10	=10
1r	2r	4d\]	1d	0r
.	.	4c\	.	.
.	2G/	4B\	.	.
.	.	4A/	.	.
1G	2d\	1B	1d	.
.	2G/	.	.	.
=11	=11	=11	=11	=11
1A	2.c\	0A	2c\	0a
.	.	.	2e\	.
.	4A/	.	.	.
2D\	2d\	.	2f\	.
[2A\	[2c\	.	2e\	.
=12	=12	=12	=12	=12
4A\]	4c\]	0r	1c	1a
4G\	4B\	.	.	.
4F\	4A/	.	.	.
4E\	4G/	.	.	.
1F	1A	.	1d	1a
=13	=13	=13	=13	=13
1.E	1B	0r	2.e\	0g
.	.	.	4d\	.
.	1e	.	2B\	.
2C/	.	.	2c\	.
=14	=14	=14	=14	=14
0C	1e	0r	3G/V	1r
.	.	.	3A/	.
.	.	.	3B\Z	.
.	1e	.	3c\V	1g
.	.	.	3d\	.
.	.	.	3e\Z	.
=15	=15	=15	=15	=15
0r	0d	0d	2f\	1a
.	.	.	2d\	.
.	.	.	2.f\	2d/
.	.	.	.	[2a/
.	.	.	4g\	.
=16	=16	=16	=16	=16
0r	1r	1d	[0a	4a/]
.	.	.	.	4g/
.	.	.	.	4f/
.	.	.	.	4e/
.	1d	1d	.	1f
=17	=17	=17	=17	=17
0A	1e	0c	1a]	0e
.	2A/	.	2r	.
.	[2e\	.	2A/	.
=18	=18	=18	=18	=18
1A	4e\]	1r	2.c\	0r
.	4d\	.	.	.
.	4c\	.	.	.
.	4B\	.	4d\	.
1A	1c	1c	2e\	.
.	.	.	2f#i\	.
=19	=19	=19	=19	=19
0G	0B	1d	2g\	0r
.	.	.	2G/	.
.	.	2G/	2d\	.
.	.	[2d\	2G/	.
=20	=20	=20	=20	=20
1r	2r	4d\]	1d	0r
.	.	4c\	.	.
.	2G/	4B\	.	.
.	.	4A/	.	.
1G	2d\	1B	1d	.
.	2G/	.	.	.
=21	=21	=21	=21	=21
1A	2.c\	0A	1c	2.a/
.	4d\	.	.	4b\
2A\	2e\	.	1a	4cc\
.	.	.	.	4dd\
[2c\	2A/	.	.	[2ee\
=22	=22	=22	=22	=22
4c\]	2c\	0r	2.g\	4ee\]
4B\	.	.	.	4dd\
2G\	2B\	.	.	1dd
.	.	.	4f\	.
1A	2c\	.	1e	.
.	2A/	.	.	2cc#i\
=23	=23	=23	=23	=23
1D	1r	0r	1d	2dd\
.	.	.	.	4a/
.	.	.	.	4b\
1r	2r	.	1a	4cc\
.	.	.	.	4dd\
.	2A/	.	.	[2ee\
=24	=24	=24	=24	=24
0r	2c\	0r	2.g\	4ee\]
.	.	.	.	4dd\
.	2G/	.	.	1dd
.	.	.	4f\	.
.	1A	.	1e	.
.	.	.	.	2cc#i\
=25	=25	=25	=25	=25
1r	1D	2.d\	1d	0dd
.	.	4e\	.	.
2r	1d	4f\	2r	.
.	.	4g\	.	.
2D\	.	[2a\	[2f\	.
=26	=26	=26	=26	=26
2F\	2.c\	4a\]	2f\]	0r
.	.	4g\	.	.
2C/	.	1g	2e\	.
.	4B\	.	.	.
1D	1A	.	1d	.
.	.	2f#i\	.	.
=27	=27	=27	=27	=27
1GG	1G	2g\	1B	0r
.	.	4d\	.	.
.	.	4e\	.	.
2r	1d	4f\	2r	.
.	.	4g\	.	.
2D\	.	[2a\	[2f\	.
=28	=28	=28	=28	=28
2F\	2.c\	4a\]	2f\]	0r
.	.	4g\	.	.
2C/	.	1g	2e\	.
.	4B\	.	.	.
1D	1A	.	1d	.
.	.	2f#i\	.	.
=29	=29	=29	=29	=29
0GG	1G	0g	2B\	1r
.	.	.	2G/	.
.	2r	.	2B\	1dd
.	2G/	.	2B\	.
=30	=30	=30	=30	=30
2r	2B\	0r	2G/	1dd
2G\	2B\	.	2G/	.
2B\	2G/	.	2.d\	1dd
2B\	2G/	.	.	.
.	.	.	4B\	.
=31	=31	=31	=31	=31
2G\	2.d\	0r	4B\	1.dd
.	.	.	4c\	.
2.B-i\	.	.	4d\	.
.	4c\	.	4e\	.
.	2B\	.	4f\	.
4A\	.	.	4g\	.
2F\	2A/	.	[2a\	2cc\
=32	=32	=32	=32	=32
1G	1B	0r	4a\]	2b\
.	.	.	4g\	.
.	.	.	1g	2g/
1D	1r	.	.	1a
.	.	.	2f#i\	.
=33	=33	=33	=33	=33
2r	2r	1r	2g\	0g
2G\	2G/	.	2d\	.
2C/	2c\	1g	2e\	.
2C/	2c\	.	2e\	.
=34	=34	=34	=34	=34
2G\	2B\	1g	2d\	0r
2G\	2G/	.	2d\	.
1C	1c	1g	1e	.
=35	=35	=35	=35	=35
1G	2B\	1.g	1d	0r
.	4G/	.	.	.
.	4A/	.	.	.
1r	4B\	.	1r	.
.	4c\	.	.	.
.	[2d\	2f\	.	.
=36	=36	=36	=36	=36
0r	4d\]	2e\	0r	0r
.	4c\	.	.	.
.	1c	2c\	.	.
.	.	1d	.	.
.	2B\	.	.	.
=37	=37	=37	=37	=37
1r	0c	0c	1r	1r
1C	.	.	1e	1g
=38	=38	=38	=38	=38
1F	1r	0r	1c	1a
1F	1A	.	1d	1a
=39	=39	=39	=39	=39
2E\	2.c\	0r	0e	1g
2C/	.	.	.	.
.	4d\	.	.	.
[1c	1e	.	.	1g
=40	=40	=40	=40	=40
2c\]	1A	0r	0r	1.cc
2B\	.	.	.	.
2A\	1r	.	.	.
2G\	.	.	.	2b\
=41	=41	=41	=41	=41
2F\	1r	1r	1r	1a
2D\	.	.	.	.
1E	1G	1c	2r	1g
.	.	.	2e\	.
=42	=42	=42	=42	=42
0D	1A	1d	2f\	2.f/
.	.	.	2g\	.
.	.	.	.	4e/
.	2.F/	1d	[1a	1f
.	4G/	.	.	.
=43	=43	=43	=43	=43
1r	0A	1c	2a\]	0e
.	.	.	4g\	.
.	.	.	4f\	.
1AA	.	1c	2e\	.
.	.	.	2c\	.
=44	=44	=44	=44	=44
1.D	2r	1.f	2d\	0r
.	2A/	.	4D/	.
.	.	.	4E/	.
.	2D/	.	4F/	.
.	.	.	4G/	.
2C/	2E/	2e\	[2A/	.
=45	=45	=45	=45	=45
2BB/	2F/	1d	4A/]	0r
.	.	.	4G/	.
4AA/	2G/	.	2.G/	.
4GG/	.	.	.	.
1AA	1C	1c	.	.
.	.	.	4F#i/	.
.	.	.	4F#i/	.
.	.	.	4E/	.
=46	=46	=46	=46	=46
1GG	1D	2.B\	1G	1r
.	.	4A/	.	.
1GG	1G	1B	2r	1g
.	.	.	2d\	.
=47	=47	=47	=47	=47
1D	2F/	0A	2d\	1a
.	2D/	.	1f	.
1D	1d	.	.	1f
.	.	.	4e\	.
.	.	.	4d\	.
=48	=48	=48	=48	=48
2AA/	2c\	0r	2e\	2e/
2A\	2c\	.	2e\	2cc\
2A\	2c\	.	2e\	2cc\
2A\	2c\	.	2e\	2cc\
=49	=49	=49	=49	=49
1D	1d	0r	1f	2b\
.	.	.	.	2.a/
1E	1B	.	1e	.
.	.	.	.	4g#i/
.	.	.	.	4g#i/
.	.	.	.	4f#i/
=50	=50	=50	=50	=50
1AA	1A	1r	1c	2a/
.	.	.	.	2cc\
1A	2r	1c	2r	2cc\
.	2A/	.	2e\	2cc\
=51	=51	=51	=51	=51
1D	1F	1d	1f	2b\
.	.	.	.	2.a/
1E	1G	1B	2.e\	.
.	.	.	.	4g#i/
.	.	.	.	4g#i/
.	.	.	4B\	4f#i/
=52	=52	=52	=52	=52
2AA/	2E/	2A/	2c\	[0al
2D\	2D/	2f\	2d\	.
2F\	1A	2f\	2r	.
2E\	.	2f\	2A/	.
=53	=53	=53	=53	=53
2A\	0r	2e\	2c\	0a_
2D\	.	2.d\	2d\	.
1A	.	.	1e	.
.	.	4c#i\	.	.
.	.	4c#i\	.	.
.	.	4B\	.	.
=54	=54	=54	=54	=54
0D	2r	2d\	2.f\	0a_
.	2D/	2f\	.	.
.	.	.	4d\	.
.	2F/	2f\	2d\	.
.	2D/	2f\	2A/	.
=55	=55	=55	=55	=55
0r	2A/	2e\	2c\	0a_
.	2D/	2.d\	2d\	.
.	1A	.	1e	.
.	.	4c#i\	.	.
.	.	4c#i\	.	.
.	.	4B\	.	.
=56	=56	=56	=56	=56
2r	0D	[0dl	2.f\	0a_
2D\	.	.	.	.
.	.	.	4d\	.
2D\	.	.	1d	.
2D\	.	.	.	.
=57	=57	=57	=57	=57
1F	2r	0d_	1r	0a_
.	2D/	.	.	.
2.F\	2D/	.	2r	.
.	2D/	.	2d\	.
4D\	.	.	.	.
=58	=58	=58	=58	=58
[0Dl	1F	0d_	2d\	0a_
.	.	.	2d\	.
.	2.F/	.	1f	.
.	4D/	.	.	.
=59	=59	=59	=59	=59
0D]	0Dl	0d]	2.f\	0a]
.	.	.	4d\	.
.	.	.	1dl	.
==	==	==	==	==
*-	*-	*-	*-	*-
!!!RDF**kern: l=long note in original notation
!!!RDF**kern: i=editorial accidental
!!!ENC: Will Watson 22/08/2011
!!!END: 2011/08/22/
!!!EED: Jesse Rodin
!!!EEV: 2011/10/07/
!!attribution-level@Jos: 2 (slightly less secure)
!!!ONB: Translated from MusicXML and edited on 2011/10/07/ by Craig Sapp
!!muse2ps:  C^@{COA}?\n@{SCT}^v90,90,90,90,90,130Q16
